!!!SOCIAL_FUNCTION: bear dance songs
!!!PDT:	1943
!!!LING_GROUP: Muskogean
!!!LANG: Non-Tone
Specific Region: Oklahoma, California, Mississippi, Louisiana, Texas, Alabama
!!!REG: Southeast
!!!COM: Anon.
!!!OTL: Bear Dance Song (c)
!!!ODT: <1933//
!!!MPN: Lapintabeseihoke [Kills it Himself, Sidney Wesley]
!!!MPN: Atobaantci [Putting it Back, Mary Hiekman]
!!!MLC: Philadelphia, Mississippi, United States of America
!! Song was recorded in January 1933.
!!!AGN: monody
!!!AMT: simple duple
!!!RWG: Transcribed pitches, durations, and meters are only approximate.
**kern	**recip
*ICvox	*ICidio
*Imale	*Isticks
*Ifemale	*
*clefF4	*
*k[f#]	*
*M2/4	*M2/4
*MM88	*MM88
=1-	=1-
(8.d	12
.	12r
.	12r
16B)	.
8d	12
.	12r
8r	.
.	12
=2	=2
(8.d	12
.	12r
.	12r
16B)	.
8d	12
.	12r
8r	.
.	12
=3	=3
(8.d	12
.	12r
.	12r
16B)	.
8d	12
.	12r
8r	.
.	12
=4	=4
8.B	12
.	12r
.	12
16B	.
16B	12
8.G	.
.	12r
.	12
=5	=5
8.A	12
.	12r
.	12
16A	.
8G	12
.	12r
8c	.
.	12
=6	=6
8.B	12
.	12r
.	12
16G	.
16G	12
8.G	.
.	12r
.	12
=7	=7
8.G	12
.	12r
.	12
16G	.
8G	12
.	12r
8r	.
.	12
=8	=8
8.G	12
.	12r
.	12
16G	.
16G	12
8.G	.
.	12r
.	12
=9	=9
8.A	12
.	12r
.	12
16G	.
16G	12
8.G	.
.	12r
.	12
=10	=10
8.G	12
.	12r
.	12
16G	.
8G	12
.	12r
8r	.
.	12
=11	=11
8.G	12
.	12r
.	12
16G	.
16G	12
8.G	.
.	12r
.	12
=12	=12
8.A	12
.	12r
.	12
16G	.
16G	12
8.G	.
.	12r
.	12
=13	=13
8.G	12
.	12r
.	12
16G	.
8G	12
.	12r
8r	.
.	12
=14	=14
8.G	12
.	12r
.	12
16G	.
16G	12
8.G	.
.	12r
.	12
=15	=15
4B	.
4A	.
=16	=16
8.B	12
.	12r
.	12
16B	.
16B	12
8.G	.
.	12r
.	12
=17	=17
8.A	12
.	12r
.	12
16G	.
8G	12
.	12r
8c	.
.	12
=18	=18
8.B	12
.	12r
.	12
16G	.
16G	12
8.G	.
.	12r
.	12
=19	=19
8.G	12
.	12r
.	12
16G	.
8G	12
.	12r
8r	.
.	12
=20	=20
8.G	12
.	12r
.	12
16G	.
16G	12
8.G	.
.	12r
.	12
=21	=21
8.A	12
.	12r
.	12
16G	.
16G	12
8.G	.
.	12r
.	12
=22	=22
8.G	12
.	12r
.	12
16G	.
16G	12
8.G	.
.	12r
.	12
=23	=23
(8.d	12
.	12r
.	12
16G)	.
8d	12
.	12r
8r	.
.	12
==	==
*-	*-
!!!CNT: Choctaw
!!!TXO: Choctaw
!!!OCY: United States
!!!OCL: Frances Densmore
!!!YOR: Frances Densmore, "Choctaw Music"
!!!YOR: Bulletin 136, page 159, No. 42
!!!PPR: Smithsonian Institution, Bureau of American Ethnology
!!!PPR: Government Printing Office
!!!PDT: 1943
!!!PPP: Washington, DC, United States of America
!!!YEC: Electronic Copyright 2000 David Huron
!!!YER: August 2000
!!!YEN: United States of America
!!!ENC: David Huron
!!!RDT: August 28, 2000
!!!EEV: Release 1.0
!!!AIN: sticks, vox
